X: 1289
T: McFadden's Handsome Daughter
R:Reel
N:Collected by McFadden
B:O'Neill's 1289
Z:transcribed by Trish O'Neil
M:C|
L:1/8
K:A
E3F ABcA|BABa ecAF|(3EEE (FG)A2(af)|ecBd cAAF|
E3F ABcA|BABa ecAF|(3EEE (FG)A2(af)|ecBd c"H"AAg||
aece fgaf|edcA B~F-F2|aece fgaf|edcB Ac (3efg|
aece aecA|TB2(cA) BAFA|agfe fgaf|edcB ABcd||
ce2f ecac|ecac f~B-B2|ce2f ecac|EFAe (cAA2)|
ceef ecac|ecac f~B-B2|cefg abaf|ec (efg (ae)"D.C."cA|]


